packages/icons/src/SVG/user-group-solid.svg

<svg width="12" height="12" viewBox="0 0 12 12" fill="none" xmlns="http://www.w3.org/2000/svg">
<path d="M0 12H9V11.0869C9 10.6715 8.87467 10.3027 8.62402 9.98047C8.38053 9.6582 8.06901 9.43978 7.68945 9.3252C7.60352 9.28939 7.50326 9.25358 7.38867 9.21777C7.28125 9.18197 7.15234 9.14258 7.00195 9.09961C6.96615 9.09245 6.92318 9.08171 6.87305 9.06738C6.82292 9.05306 6.75488 9.03158 6.66895 9.00293C6.60449 8.98861 6.54362 8.97428 6.48633 8.95996C6.4362 8.93848 6.38607 8.92057 6.33594 8.90625C5.85612 8.76302 5.49447 8.59831 5.25098 8.41211C5.00749 8.22591 4.8571 7.986 4.7998 7.69238C5.01465 7.47038 5.21159 7.2054 5.39063 6.89746C5.56966 6.58952 5.72005 6.26009 5.8418 5.90918C5.9707 5.55827 6.07096 5.2002 6.14258 4.83496C6.21419 4.46257 6.25 4.10091 6.25 3.75C6.25 3.2487 6.17839 2.82259 6.03516 2.47168C5.89193 2.12077 5.69499 1.83789 5.44434 1.62305C5.19369 1.40104 4.90365 1.24349 4.57422 1.15039C4.23763 1.05013 3.87956 1 3.5 1C3.12044 1 2.76237 1.05013 2.42578 1.15039C2.09635 1.24349 1.80632 1.40104 1.55566 1.62305C1.30501 1.83789 1.10807 2.12077 0.964844 2.47168C0.821615 2.82259 0.75 3.2487 0.75 3.75C0.75 4.10091 0.785808 4.46257 0.857422 4.83496C0.929037 5.2002 1.0293 5.55827 1.1582 5.90918C1.27995 6.26009 1.43034 6.58952 1.60938 6.89746C1.78841 7.2054 1.98535 7.47038 2.2002 7.69238C2.1429 7.986 1.99251 8.22591 1.74902 8.41211C1.50553 8.59831 1.14388 8.76302 0.664063 8.90625C0.613933 8.92057 0.563802 8.93848 0.513672 8.95996C0.45638 8.97428 0.395508 8.98861 0.331055 9.00293C0.245117 9.03158 0.177083 9.05306 0.126953 9.06738C0.0777313 9.08145 0.0354134 9.09206 0 9.09922V12Z" fill="#4C505B"/>
<path d="M9.5 12H12V9.6664C11.9577 9.65369 11.9128 9.64054 11.8652 9.62695C11.8359 9.62109 11.8008 9.6123 11.7598 9.60059C11.7188 9.58887 11.6631 9.57129 11.5928 9.54785C11.54 9.53613 11.4902 9.52441 11.4434 9.5127C11.4023 9.49512 11.3613 9.48047 11.3203 9.46875C10.9277 9.35156 10.6318 9.2168 10.4326 9.06445C10.2334 8.91211 10.1104 8.71582 10.0635 8.47559C10.2393 8.29395 10.4004 8.07715 10.5469 7.8252C10.6934 7.57324 10.8164 7.30371 10.916 7.0166C11.0215 6.72949 11.1035 6.43652 11.1621 6.1377C11.2207 5.83301 11.25 5.53711 11.25 5.25C11.25 4.83984 11.1914 4.49121 11.0742 4.2041C10.957 3.91699 10.7959 3.68555 10.5908 3.50977C10.3857 3.32812 10.1484 3.19922 9.87891 3.12305C9.60352 3.04102 9.31055 3 9 3C8.68945 3 8.39648 3.04102 8.12109 3.12305C7.85156 3.19922 7.61426 3.32812 7.40918 3.50977C7.2041 3.68555 7.04297 3.91699 6.92578 4.2041C6.80859 4.49121 6.75 4.83984 6.75 5.25C6.75 5.53711 6.7793 5.83301 6.83789 6.1377C6.89648 6.43652 6.97852 6.72949 7.08398 7.0166C7.18359 7.30371 7.30664 7.57324 7.45312 7.8252C7.59961 8.07715 7.76074 8.29395 7.93652 8.47559C7.91106 8.60609 7.86312 8.72362 7.7927 8.82818C7.8151 8.83672 7.83703 8.84535 7.85848 8.85407C8.32942 9.0016 8.72021 9.2795 9.02082 9.67623C9.3396 10.0873 9.5 10.5636 9.5 11.0869V12Z" fill="#4C505B"/>
</svg>

<!-- Generated by IcoMoon.io -->
<svg version="1.1" xmlns="http://www.w3.org/2000/svg" width="12" height="12" viewBox="0 0 12 12">
<title>user-group-solid</title>
<path d="M0 12h9v-0.913c0-0.415-0.125-0.784-0.376-1.106-0.243-0.322-0.555-0.541-0.935-0.655-0.086-0.036-0.186-0.072-0.301-0.107-0.107-0.036-0.236-0.075-0.387-0.118-0.036-0.007-0.079-0.018-0.129-0.032s-0.118-0.036-0.204-0.064c-0.064-0.014-0.125-0.029-0.183-0.043-0.050-0.021-0.1-0.039-0.15-0.054-0.48-0.143-0.841-0.308-1.085-0.494s-0.394-0.426-0.451-0.72c0.215-0.222 0.412-0.487 0.591-0.795s0.329-0.637 0.451-0.988c0.129-0.351 0.229-0.709 0.301-1.074 0.072-0.372 0.107-0.734 0.107-1.085 0-0.501-0.072-0.927-0.215-1.278s-0.34-0.634-0.591-0.849c-0.251-0.222-0.541-0.38-0.87-0.473-0.337-0.1-0.695-0.15-1.074-0.15s-0.738 0.050-1.074 0.15c-0.329 0.093-0.619 0.251-0.87 0.473-0.251 0.215-0.448 0.498-0.591 0.849s-0.215 0.777-0.215 1.278c0 0.351 0.036 0.713 0.107 1.085 0.072 0.365 0.172 0.723 0.301 1.074 0.122 0.351 0.272 0.68 0.451 0.988s0.376 0.573 0.591 0.795c-0.057 0.294-0.208 0.534-0.451 0.72s-0.605 0.351-1.085 0.494c-0.050 0.014-0.1 0.032-0.15 0.054-0.057 0.014-0.118 0.029-0.183 0.043-0.086 0.029-0.154 0.050-0.204 0.064s-0.092 0.025-0.127 0.032v2.901z"></path>
<path d="M9.5 12h2.5v-2.334c-0.042-0.013-0.087-0.026-0.135-0.039-0.029-0.006-0.064-0.015-0.105-0.026s-0.097-0.029-0.167-0.053c-0.053-0.012-0.103-0.023-0.149-0.035-0.041-0.018-0.082-0.032-0.123-0.044-0.393-0.117-0.688-0.252-0.888-0.404s-0.322-0.349-0.369-0.589c0.176-0.182 0.337-0.398 0.483-0.65s0.269-0.521 0.369-0.809c0.106-0.287 0.188-0.58 0.246-0.879 0.059-0.305 0.088-0.601 0.088-0.888 0-0.41-0.059-0.759-0.176-1.046s-0.278-0.519-0.483-0.694c-0.205-0.182-0.442-0.311-0.712-0.387-0.275-0.082-0.568-0.123-0.879-0.123s-0.604 0.041-0.879 0.123c-0.27 0.076-0.507 0.205-0.712 0.387-0.205 0.176-0.366 0.407-0.483 0.694s-0.176 0.636-0.176 1.046c0 0.287 0.029 0.583 0.088 0.888 0.059 0.299 0.141 0.592 0.246 0.879 0.1 0.287 0.223 0.557 0.369 0.809s0.308 0.469 0.483 0.65c-0.025 0.13-0.073 0.248-0.144 0.353 0.022 0.009 0.044 0.017 0.066 0.026 0.471 0.148 0.862 0.425 1.162 0.822 0.319 0.411 0.479 0.887 0.479 1.411v0.913z"></path>
</svg>
